;FLAVOR:UltiGCode
;TIME:2757
;MATERIAL:7595
;MATERIAL2:0

;Layer count: 274
;LAYER:0
M107
G0 F9000 X104.253 Y95.229 Z0.300
;TYPE:SKIRT
G1 F1800 X107.265 Y98.502 E0.53376
G1 X115.979 Y102.061 E1.66329
G1 X118.660 Y95.143 E2.55361
G1 X123.161 Y94.672 E3.09668
G1 X123.838 Y96.501 E3.33071
G1 X131.251 Y104.948 E4.67934
G1 X119.497 Y108.194 E6.14261
G1 X115.222 Y110.415 E6.72072
G1 X114.988 Y104.618 E7.41692
G1 X115.159 Y104.178 E7.47357
G1 X113.595 Y105.707 E7.73604
G1 X108.899 Y113.454 E8.82314
G1 X111.991 Y114.521 E9.21565
G1 X111.909 Y125.254 E10.50364
G1 X110.776 Y128.221 E10.88476
G1 X107.942 Y128.599 E11.22785
G1 X99.009 Y129.779 E12.30912
G1 X98.034 Y126.395 E12.73172
G1 X96.929 Y120.913 E13.40279
G1 X97.941 Y119.425 E13.61874
G1 X101.048 Y113.569 E14.41424
G1 X105.314 Y113.472 E14.92629
G1 X100.811 Y108.405 E15.73974
G1 X99.329 Y106.473 E16.03194
G1 X100.382 Y104.739 E16.27538
G1 X104.253 Y95.229 E17.50750
G0 F9000 X114.380 Y121.428
G1 F1800 X126.208 Y121.724 E18.92730
G1 X129.677 Y122.262 E19.34856
G1 X128.696 Y130.517 E20.34613
G1 X128.674 Y133.747 E20.73374
G1 X125.454 Y133.663 E21.12027
G1 X118.155 Y134.385 E22.00042
G1 X117.680 Y131.596 E22.33992
G1 X114.380 Y121.428 E23.62273
G0 F9000 X107.718 Y146.614
G1 F1800 X112.304 Y147.963 E24.19637
G1 X120.012 Y152.066 E25.24421
G1 X118.577 Y154.470 E25.58018
G1 X118.509 Y156.532 E25.82775
G1 X118.709 Y169.158 E27.34306
G1 X113.355 Y170.577 E28.00772
G1 X109.339 Y170.697 E28.48986
G1 X108.222 Y158.299 E29.98364
G1 X108.093 Y155.251 E30.34973
G1 X107.737 Y151.292 E30.82673
G1 X107.718 Y146.614 E31.38809
G10
G0 F9000 X106.859 Y109.489
;TYPE:WALL-INNER
G11
G1 F1800 X103.905 Y106.165 E31.92172
G1 X105.625 Y101.938 E32.46935
G1 X110.283 Y103.839 E33.07307
G1 X106.859 Y109.489 E33.86585
G0 F9000 X106.920 Y110.160
;TYPE:WALL-OUTER
G1 F1800 X103.440 Y106.244 E34.49451
G1 X105.405 Y101.416 E35.12002
G1 X110.868 Y103.646 E35.82809
G1 X106.920 Y110.160 E36.74213
G0 F9000 X107.002 Y108.982
;TYPE:SKIN
G1 F1800 X104.092 Y106.072 E37.23598
G0 F9000 X104.255 Y105.670
G1 F1800 X107.216 Y108.630 E37.73839
G0 F9000 X107.429 Y108.277
G1 F1800 X104.419 Y105.268 E38.24912
G0 F9000 X104.583 Y104.866
G1 F1800 X107.642 Y107.925 E38.76825
G0 F9000 X107.856 Y107.573
G1 F1800 X104.746 Y104.463 E39.29603
G0 F9000 X104.910 Y104.062
G1 F1800 X108.069 Y107.221 E39.83213
G0 F9000 X108.283 Y106.869
G1 F1800 X105.073 Y103.659 E40.37689
G0 F9000 X105.237 Y103.257
G1 F1800 X108.497 Y106.517 E40.93013
G0 F9000 X108.710 Y106.165
G1 F1800 X105.401 Y102.855 E41.49177
G0 F9000 X105.564 Y102.453
G1 F1800 X108.923 Y105.812 E42.06181
G0 F9000 X109.136 Y105.460
G1 F1800 X105.865 Y102.188 E42.61700
G0 F9000 X106.821 Y102.578
G1 F1800 X109.350 Y105.107 E43.04619
G0 F9000 X109.564 Y104.755
G1 F1800 X107.777 Y102.968 E43.34945
G0 F9000 X108.732 Y103.358
G1 F1800 X109.777 Y104.403 E43.52680
G0 F9000 X109.991 Y104.051
G1 F1800 X109.688 Y103.748 E43.57822
G10
G0 F9000 X108.133 Y117.209
;TYPE:WALL-INNER
G11
G1 F1800 X108.171 Y117.223 E43.58308
G1 X108.115 Y124.541 E44.46126
G1 X108.034 Y124.753 E44.48850
G1 X101.755 Y125.583 E45.24853
G1 X101.727 Y125.487 E45.26053
G1 X100.970 Y121.729 E45.72055
G1 X101.204 Y121.385 E45.77047
G1 X103.361 Y117.318 E46.32291
G1 X108.133 Y117.209 E46.89569
G0 F9000 X108.195 Y116.808
;TYPE:WALL-OUTER
G1 F1800 X108.573 Y116.938 E46.94366
G1 X108.514 Y124.614 E47.86481
G1 X108.322 Y125.119 E47.92964
G1 X101.465 Y126.025 E48.75963
G1 X101.340 Y125.591 E48.81383
G1 X100.545 Y121.642 E49.29722
G1 X100.861 Y121.178 E49.36458
G1 X103.118 Y116.923 E49.94257
G1 X108.195 Y116.808 E50.55196
G0 F9000 X107.465 Y117.364
;TYPE:SKIN
G1 F1800 X108.026 Y117.925 E50.64717
G0 F9000 X108.021 Y118.487
G1 F1800 X106.911 Y117.376 E50.83563
G0 F9000 X106.358 Y117.389
G1 F1800 X108.017 Y119.048 E51.11717
G0 F9000 X108.013 Y119.609
G1 F1800 X105.805 Y117.402 E51.49179
G0 F9000 X105.252 Y117.415
G1 F1800 X108.009 Y120.171 E51.95959
G0 F9000 X108.004 Y120.732
G1 F1800 X104.699 Y117.427 E52.52047
G0 F9000 X104.146 Y117.439
G1 F1800 X108.000 Y121.294 E53.17460
G0 F9000 X107.995 Y121.855
G1 F1800 X103.593 Y117.452 E53.92172
G0 F9000 X103.301 Y117.726
G1 F1800 X107.991 Y122.416 E54.71764
G0 F9000 X107.987 Y122.977
G1 F1800 X103.106 Y118.096 E55.54598
G0 F9000 X102.909 Y118.465
G1 F1800 X107.982 Y123.539 E56.40698
G0 F9000 X107.978 Y124.100
G1 F1800 X102.713 Y118.835 E57.30048
G0 F9000 X102.517 Y119.205
G1 F1800 X107.934 Y124.622 E58.21977
G0 F9000 X107.437 Y124.690
G1 F1800 X102.321 Y119.575 E59.08790
G0 F9000 X102.126 Y119.945
G1 F1800 X106.937 Y124.756 E59.90436
G0 F9000 X106.437 Y124.822
G1 F1800 X101.929 Y120.314 E60.66939
G0 F9000 X101.733 Y120.684
G1 F1800 X105.938 Y124.888 E61.38292
G0 F9000 X105.438 Y124.954
G1 F1800 X101.537 Y121.053 E62.04494
G0 F9000 X101.341 Y121.423
G1 F1800 X104.938 Y125.020 E62.65537
G0 F9000 X104.439 Y125.087
G1 F1800 X101.119 Y121.766 E63.21888
G0 F9000 X101.261 Y122.475
G1 F1800 X103.939 Y125.152 E63.67326
G0 F9000 X103.440 Y125.219
G1 F1800 X101.404 Y123.183 E64.01879
G0 F9000 X101.547 Y123.892
G1 F1800 X102.940 Y125.285 E64.25519
G0 F9000 X102.440 Y125.350
G1 F1800 X101.691 Y124.601 E64.38229
G0 F9000 X101.833 Y125.309
G1 F1800 X101.941 Y125.417 E64.40062
G10
G0 F9000 X119.652 Y125.361
;TYPE:WALL-INNER
G11
G1 F1800 X125.464 Y125.507 E65.09828
G1 X124.942 Y129.895 E65.62856
G1 X121.242 Y130.261 E66.07472
G1 X119.652 Y125.361 E66.69290
G0 F9000 X119.096 Y124.947
;TYPE:WALL-OUTER
G1 F1800 X125.901 Y125.118 E67.50976
G1 X125.913 Y125.119 E67.51121
G1 X125.302 Y130.262 E68.13271
G1 X120.961 Y130.691 E68.65616
G1 X119.096 Y124.947 E69.38087
G0 F9000 X119.980 Y125.920
;TYPE:SKIN
G1 F1800 X123.914 Y129.854 E70.04849
G0 F9000 X123.400 Y129.905
G1 F1800 X120.251 Y126.757 E70.58281
G0 F9000 X120.523 Y127.594
G1 F1800 X122.885 Y129.956 E70.98365
G0 F9000 X122.370 Y130.007
G1 F1800 X120.795 Y128.432 E71.25094
G0 F9000 X121.067 Y129.269
G1 F1800 X121.855 Y130.058 E71.38475
G0 F9000 X124.429 Y129.803
G1 F1800 X120.139 Y125.513 E72.11279
G0 F9000 X120.720 Y125.528
G1 F1800 X124.831 Y129.640 E72.81053
G0 F9000 X124.892 Y129.134
G1 F1800 X121.299 Y125.542 E73.42020
G0 F9000 X121.880 Y125.557
G1 F1800 X124.952 Y128.629 E73.94154
G0 F9000 X125.012 Y128.123
G1 F1800 X122.460 Y125.571 E74.37462
G0 F9000 X123.040 Y125.586
G1 F1800 X125.072 Y127.617 E74.71938
G0 F9000 X125.132 Y127.112
G1 F1800 X123.621 Y125.601 E74.97581
G0 F9000 X124.201 Y125.615
G1 F1800 X125.192 Y126.606 E75.14399
G0 F9000 X125.252 Y126.101
G1 F1800 X124.781 Y125.630 E75.22392
G10
G0 F9000 X119.170 Y104.342
;TYPE:WALL-INNER
G11
G1 F1800 X121.159 Y99.208 E75.88462
G1 X124.397 Y102.899 E76.47382
G1 X119.170 Y104.342 E77.12452
G0 F9000 X118.509 Y104.940
;TYPE:WALL-OUTER
G1 F1800 X121.024 Y98.449 E77.95986
G1 X125.118 Y103.114 E78.70467
G1 X118.509 Y104.940 E79.52746
G0 F9000 X119.481 Y103.924
;TYPE:SKIN
G1 F1800 X119.847 Y104.008 E79.55202
G1 X119.638 Y103.516 E79.61616
G0 F9000 X119.796 Y103.108
G1 F1800 X120.512 Y103.825 E79.73776
G0 F9000 X120.955 Y103.702
G1 F1800 X119.954 Y102.700 E79.90772
G0 F9000 X120.112 Y102.293
G1 F1800 X121.398 Y103.579 E80.12596
G0 F9000 X121.842 Y103.457
G1 F1800 X120.270 Y101.885 E80.39274
G0 F9000 X120.428 Y101.477
G1 F1800 X122.285 Y103.335 E80.70797
G0 F9000 X122.728 Y103.212
G1 F1800 X120.586 Y101.070 E81.07148
G0 F9000 X120.744 Y100.662
G1 F1800 X123.172 Y103.090 E81.48352
G0 F9000 X123.615 Y102.968
G1 F1800 X120.901 Y100.254 E81.94410
G0 F9000 X121.060 Y99.847
G1 F1800 X124.058 Y102.845 E82.45288
G10
G0 F9000 X111.607 Y151.897
;TYPE:WALL-INNER
G11
G1 F1800 X114.804 Y153.599 E82.88750
G1 X114.708 Y156.527 E83.23905
G1 X114.863 Y166.246 E84.40548
G1 X112.803 Y166.791 E84.66118
G1 X112.014 Y158.034 E85.71628
G1 X111.886 Y154.999 E86.08080
G1 X111.607 Y151.897 E86.45454
G0 F9000 X111.786 Y155.019
G0 X111.487 Y155.026
;TYPE:WALL-OUTER
G1 F1800 X111.142 Y151.197 E86.91588
G1 X115.235 Y153.375 E87.47225
G1 X115.211 Y153.397 E87.47616
G1 X115.108 Y156.530 E87.85232
G1 X115.268 Y166.553 E89.05524
G1 X112.864 Y167.190 E89.35367
G1 X112.438 Y167.202 E89.40481
G1 X111.616 Y158.080 E90.50389
G1 X111.487 Y155.026 E90.87070
G0 F9000 X112.000 Y154.710
;TYPE:SKIN
G1 F1800 X114.580 Y157.290 E91.30854
G0 F9000 X114.571 Y156.715
G1 F1800 X111.944 Y154.088 E91.75435
G0 F9000 X111.888 Y153.466
G1 F1800 X114.580 Y156.158 E92.21120
G0 F9000 X114.598 Y155.610
G1 F1800 X111.832 Y152.844 E92.68061
G0 F9000 X111.775 Y152.222
G1 F1800 X114.616 Y155.062 E93.16265
G0 F9000 X114.634 Y154.514
G1 F1800 X112.822 Y152.703 E93.47008
G0 F9000 X114.032 Y153.347
G1 F1800 X114.651 Y153.966 E93.57512
G0 F9000 X112.039 Y155.314
G1 F1800 X114.590 Y157.865 E94.00804
G0 F9000 X114.599 Y158.440
G1 F1800 X112.064 Y155.905 E94.43825
G0 F9000 X112.089 Y156.495
G1 F1800 X114.608 Y159.014 E94.86574
G0 F9000 X114.617 Y159.589
G1 F1800 X112.113 Y157.085 E95.29068
G0 F9000 X112.138 Y157.676
G1 F1800 X114.626 Y160.164 E95.71291
G0 F9000 X114.636 Y160.739
G1 F1800 X112.175 Y158.278 E96.13055
G0 F9000 X112.231 Y158.901
G1 F1800 X114.645 Y161.314 E96.54014
G0 F9000 X114.654 Y161.889
G1 F1800 X112.287 Y159.522 E96.94183
G0 F9000 X112.343 Y160.144
G1 F1800 X114.663 Y162.464 E97.33555
G0 F9000 X114.672 Y163.039
G1 F1800 X112.400 Y160.766 E97.72120
G0 F9000 X112.456 Y161.387
G1 F1800 X114.681 Y163.613 E98.09888
G0 F9000 X114.690 Y164.188
G1 F1800 X112.512 Y162.009 E98.46859
G0 F9000 X112.568 Y162.631
G1 F1800 X114.699 Y164.762 E98.83023
G0 F9000 X114.708 Y165.337
G1 F1800 X112.624 Y163.253 E99.18390
G0 F9000 X112.680 Y163.874
G1 F1800 X114.718 Y165.912 E99.52976
G0 F9000 X114.449 Y166.209
G1 F1800 X112.736 Y164.497 E99.82038
G0 F9000 X112.792 Y165.118
G1 F1800 X114.001 Y166.327 E100.02555
G0 F9000 X113.554 Y166.446
G1 F1800 X112.848 Y165.740 E100.14536
G0 F9000 X112.905 Y166.362
G1 F1800 X113.107 Y166.564 E100.17964
;LAYER:1
M106 S255
G10
G0 F9000 X106.858 Y109.451 Z0.500
;TYPE:WALL-INNER
G11
G1 F2520 X103.963 Y106.193 E100.52831
G1 X105.660 Y102.025 E100.88833
G1 X110.228 Y103.890 E101.28306
G1 X106.858 Y109.451 E101.80325
G0 F9000 X106.919 Y110.122
;TYPE:WALL-OUTER
G1 F1920 X103.560 Y106.342 E102.20780
G1 X103.494 Y106.257 E102.21640
G1 X103.528 Y106.201 E102.22165
G1 X105.440 Y101.503 E102.62742
G1 X110.838 Y103.707 E103.09387
G1 X110.762 Y103.781 E103.10235
G1 X106.919 Y110.122 E103.69553
G0 F9000 X106.722 Y109.086
;TYPE:SKIN
G1 F1740 X107.210 Y108.598 E103.75074
G0 F9000 X106.456 Y108.786
G1 F1740 X108.080 Y107.162 E103.93447
G0 F9000 X108.950 Y105.727
G1 F1740 X106.190 Y108.487 E104.24673
G0 F9000 X105.924 Y108.187
G1 F1740 X109.820 Y104.291 E104.68751
G0 F9000 X109.714 Y103.831
G1 F1740 X105.658 Y107.888 E105.14645
G0 F9000 X105.392 Y107.588
G1 F1740 X109.312 Y103.668 E105.58995
G0 F9000 X108.910 Y103.504
G1 F1740 X105.126 Y107.288 E106.01806
G0 F9000 X104.859 Y106.989
G1 F1740 X108.509 Y103.340 E106.43095
G0 F9000 X108.107 Y103.176
G1 F1740 X104.593 Y106.689 E106.82846
G0 F9000 X104.327 Y106.389
G1 F1740 X107.705 Y103.012 E107.21058
G0 F9000 X107.304 Y102.847
G1 F1740 X104.218 Y105.933 E107.55972
G0 F9000 X104.607 Y104.979
G1 F1740 X106.902 Y102.683 E107.81943
G0 F9000 X106.500 Y102.519
G1 F1740 X104.995 Y104.025 E107.98976
G0 F9000 X105.383 Y103.071
G1 F1740 X106.099 Y102.355 E108.07076
G10
G0 F9000 X107.494 Y117.515
;TYPE:WALL-INNER
G11
G1 F2520 X108.082 Y117.719 E108.12055
G1 X108.034 Y123.968 E108.62049
G1 X107.704 Y124.831 E108.69440
G1 X101.888 Y125.601 E109.16374
G1 X101.685 Y124.894 E109.22259
G1 X101.082 Y121.904 E109.46661
G1 X101.674 Y121.035 E109.55072
G1 X103.492 Y117.607 E109.86114
G1 X107.494 Y117.515 E110.18139
G0 F9000 X107.557 Y117.114
;TYPE:WALL-OUTER
G1 F1920 X108.484 Y117.435 E110.25987
G1 X108.433 Y124.042 E110.78844
G1 X107.991 Y125.197 E110.88738
G1 X101.598 Y126.043 E111.40328
G1 X101.298 Y124.998 E111.49025
G1 X100.657 Y121.818 E111.74977
G1 X101.331 Y120.828 E111.84558
G1 X103.249 Y117.212 E112.17304
G1 X107.557 Y117.114 E112.51777
G0 F9000 X107.693 Y117.731
;TYPE:SKIN
G1 F1740 X101.610 Y123.815 E113.20604
G0 F9000 X101.705 Y124.285
G1 F1740 X107.938 Y118.052 E113.91122
G0 F9000 X107.934 Y118.622
G1 F1740 X101.800 Y124.756 E114.60520
G0 F9000 X101.919 Y125.203
G1 F1740 X107.929 Y119.192 E115.28521
G0 F9000 X107.925 Y119.762
G1 F1740 X102.281 Y125.406 E115.92376
G0 F9000 X102.933 Y125.320
G1 F1740 X107.921 Y120.332 E116.48809
G0 F9000 X107.917 Y120.902
G1 F1740 X103.585 Y125.234 E116.97820
G0 F9000 X104.237 Y125.148
G1 F1740 X107.912 Y121.472 E117.39403
G0 F9000 X107.908 Y122.042
G1 F1740 X104.889 Y125.061 E117.73559
G0 F9000 X105.540 Y124.976
G1 F1740 X107.904 Y122.612 E118.00305
G0 F9000 X107.900 Y123.182
G1 F1740 X106.192 Y124.889 E118.19623
G0 F9000 X106.844 Y124.803
G1 F1740 X107.895 Y123.752 E118.31514
G0 F9000 X107.659 Y124.554
G1 F1740 X107.496 Y124.717 E118.33358
G0 F9000 X101.515 Y123.344
G1 F1740 X107.199 Y117.660 E118.97665
G0 F9000 X106.620 Y117.673
G1 F1740 X101.421 Y122.873 E119.56491
G0 F9000 X101.325 Y122.403
G1 F1740 X106.041 Y117.687 E120.09846
G0 F9000 X105.462 Y117.700
G1 F1740 X101.234 Y121.928 E120.57681
G0 F9000 X102.138 Y120.459
G1 F1740 X104.883 Y117.714 E120.88737
G0 F9000 X104.303 Y117.727
G1 F1740 X102.776 Y119.254 E121.06013
G0 F9000 X103.414 Y118.051
G1 F1740 X103.724 Y117.741 E121.09520
G10
G0 F9000 X119.669 Y125.436
;TYPE:WALL-INNER
G11
G1 F2520 X125.437 Y125.581 E121.55679
G1 X124.917 Y129.947 E121.90853
G1 X121.250 Y130.309 E122.20332
G1 X119.669 Y125.436 E122.61316
G0 F9000 X119.113 Y125.022
;TYPE:WALL-OUTER
G1 F1920 X125.658 Y125.187 E123.13693
G1 X125.882 Y125.221 E123.15506
G1 X125.288 Y130.221 E123.55787
G1 X125.287 Y130.328 E123.56643
G1 X125.169 Y130.325 E123.57587
G1 X120.969 Y130.739 E123.91350
G1 X119.113 Y125.022 E124.39436
G0 F9000 X119.948 Y125.841
;TYPE:SKIN
G1 F1740 X120.201 Y125.588 E124.42298
G0 F9000 X120.753 Y125.602
G1 F1740 X120.087 Y126.268 E124.49833
G0 F9000 X120.225 Y126.695
G1 F1740 X121.304 Y125.616 E124.62041
G0 F9000 X121.857 Y125.630
G1 F1740 X120.364 Y127.122 E124.78926
G0 F9000 X120.502 Y127.550
G1 F1740 X122.408 Y125.644 E125.00490
G0 F9000 X122.960 Y125.657
G1 F1740 X120.640 Y127.977 E125.26738
G0 F9000 X120.779 Y128.404
G1 F1740 X123.512 Y125.671 E125.57658
G0 F9000 X124.064 Y125.685
G1 F1740 X120.918 Y128.832 E125.93257
G0 F9000 X121.056 Y129.259
G1 F1740 X124.616 Y125.699 E126.33534
G0 F9000 X125.167 Y125.713
G1 F1740 X121.195 Y129.686 E126.78478
G0 F9000 X121.333 Y130.113
G1 F1740 X125.218 Y126.229 E127.22426
G0 F9000 X125.141 Y126.871
G1 F1740 X121.910 Y130.101 E127.58975
G0 F9000 X122.538 Y130.040
G1 F1740 X125.065 Y127.513 E127.87564
G0 F9000 X124.988 Y128.155
G1 F1740 X123.165 Y129.978 E128.08189
G0 F9000 X123.793 Y129.916
G1 F1740 X124.912 Y128.797 E128.20849
G0 F9000 X124.835 Y129.440
G1 F1740 X124.420 Y129.855 E128.25544
G10
G0 F9000 X119.168 Y104.328
;TYPE:WALL-INNER
G11
G1 F2520 X121.153 Y99.206 E128.69490
G1 X124.384 Y102.888 E129.08679
G1 X119.168 Y104.328 E129.51968
G0 F9000 X118.507 Y104.926
;TYPE:WALL-OUTER
G1 F1920 X121.018 Y98.446 E130.07564
G1 X125.105 Y103.103 E130.57132
G1 X118.507 Y104.926 E131.11894
G0 F9000 X119.690 Y104.038
;TYPE:SKIN
G1 F1740 X122.627 Y101.100 E131.45128
G0 F9000 X122.363 Y100.799
G1 F1740 X119.622 Y103.540 E131.76139
G0 F9000 X119.980 Y102.616
G1 F1740 X122.098 Y100.498 E132.00101
G0 F9000 X121.835 Y100.196
G1 F1740 X120.338 Y101.693 E132.17038
G0 F9000 X120.696 Y100.769
G1 F1740 X121.570 Y99.895 E132.26926
G0 F9000 X121.306 Y99.593
G1 F1740 X121.053 Y99.847 E132.29794
G0 F9000 X122.892 Y101.401
G1 F1740 X120.471 Y103.822 E132.57185
G0 F9000 X121.253 Y103.606
G1 F1740 X123.156 Y101.703 E132.78715
G0 F9000 X123.421 Y102.004
G1 F1740 X122.034 Y103.391 E132.94407
G0 F9000 X122.816 Y103.174
G1 F1740 X123.684 Y102.306 E133.04227
G0 F9000 X123.949 Y102.607
G1 F1740 X123.598 Y102.958 E133.08198
G10
G0 F9000 X111.591 Y151.672
;TYPE:WALL-INNER
G11
G1 F2520 X114.712 Y153.333 E133.36482
G1 X114.508 Y159.549 E133.86237
G1 X114.617 Y166.369 E134.40804
G1 X113.294 Y166.719 E134.51752
G1 X112.657 Y166.738 E134.56850
G1 X112.136 Y160.953 E135.03317
G1 X111.879 Y154.869 E135.52033
