;FLAVOR:UltiGCode
;TIME:1489
;MATERIAL:3345
;MATERIAL2:0

;Layer count: 276
;LAYER:0
M107
G0 F9000 X119.845 Y97.908 Z0.300
;TYPE:SKIRT
G1 F1800 X123.311 Y98.587 E0.42383
G1 X129.645 Y99.083 E1.18623
G1 X127.317 Y106.692 E2.14109
G1 X126.914 Y109.294 E2.45706
G1 X122.020 Y109.139 E3.04463
G1 X118.048 Y109.123 E3.52127
G1 X119.350 Y101.252 E4.47863
G1 X119.845 Y97.908 E4.88428
G0 F9000 X110.084 Y97.914
G1 F1800 X111.321 Y105.187 E5.76957
G1 X111.732 Y109.138 E6.24625
G1 X107.982 Y109.138 E6.69625
G1 X103.095 Y109.297 E7.28300
G1 X102.685 Y106.694 E7.59921
G1 X100.354 Y99.082 E8.55452
G1 X106.681 Y98.589 E9.31607
G1 X110.084 Y97.914 E9.73238
G0 F9000 X110.353 Y132.360
G1 F1800 X114.051 Y132.499 E10.17645
G1 X112.971 Y140.311 E11.12281
G1 X112.378 Y143.148 E11.47061
G1 X109.680 Y143.121 E11.79438
G1 X103.780 Y143.176 E12.50242
G1 X103.804 Y139.674 E12.92267
G1 X104.348 Y132.150 E13.82790
G1 X110.353 Y132.360 E14.54894
G0 F9000 X115.948 Y132.492
G1 F1800 X125.653 Y132.149 E15.71427
G1 X126.194 Y139.651 E16.61685
G1 X126.266 Y143.173 E17.03958
G1 X120.292 Y143.122 E17.75648
G1 X117.603 Y143.122 E18.07916
G1 X117.029 Y140.304 E18.42427
G1 X115.948 Y132.492 E19.37064
G10
G0 F9000 X105.822 Y103.481
;TYPE:FILL
G11
G1 F1800 X106.771 Y102.532 E19.53169
G0 F9000 X106.988 Y102.376
;TYPE:WALL-INNER
G1 F1800 X107.494 Y105.352 E19.89393
G1 X106.278 Y105.391 E20.03993
G1 X106.242 Y105.332 E20.04822
G1 X105.375 Y102.502 E20.40340
G1 X106.988 Y102.376 E20.59755
G0 F9000 X107.150 Y101.962
;TYPE:WALL-OUTER
G1 F1800 X107.318 Y101.929 E20.61810
G1 X107.950 Y105.642 E21.07007
G1 X107.960 Y105.738 E21.08165
G1 X107.936 Y105.738 E21.08453
G1 X105.986 Y105.801 E21.31865
G1 X105.960 Y105.638 E21.33846
G1 X105.874 Y105.498 E21.35817
G1 X104.846 Y102.142 E21.77936
G1 X107.150 Y101.962 E22.05669
G0 F9000 X106.775 Y102.532
;TYPE:SKIN
G1 F1800 X106.891 Y102.649 E22.07646
G0 F9000 X106.251 Y102.574
G1 F1800 X107.007 Y103.330 E22.20475
G0 F9000 X107.123 Y104.012
G1 F1800 X105.726 Y102.615 E22.44183
G0 F9000 X105.730 Y103.184
G1 F1800 X107.239 Y104.694 E22.69800
G0 F9000 X107.200 Y105.220
G1 F1800 X105.979 Y103.999 E22.90521
G0 F9000 X106.229 Y104.815
G1 F1800 X106.652 Y105.237 E22.97692
G10
G0 F9000 X122.523 Y105.353
;TYPE:WALL-INNER
G11
G1 F1800 X123.016 Y102.375 E23.33914
G1 X124.625 Y102.502 E23.53282
G1 X123.759 Y105.332 E23.88796
G1 X123.723 Y105.391 E23.89626
G1 X122.523 Y105.353 E24.04033
G0 F9000 X122.066 Y105.739
;TYPE:WALL-OUTER
G1 F1800 X122.053 Y105.739 E24.04189
G1 X122.684 Y101.929 E24.50532
G1 X122.849 Y101.961 E24.52549
G1 X125.154 Y102.142 E24.80294
G1 X124.127 Y105.497 E25.22398
G1 X124.040 Y105.638 E25.24386
G1 X124.014 Y105.800 E25.26355
G1 X122.066 Y105.739 E25.49742
G0 F9000 X122.736 Y104.916
;TYPE:SKIN
G1 F1800 X123.048 Y105.229 E25.55046
G0 F9000 X123.631 Y105.247
G1 F1800 X122.815 Y104.431 E25.68894
G0 F9000 X122.896 Y103.946
G1 F1800 X123.769 Y104.818 E25.83700
G0 F9000 X123.901 Y104.385
G1 F1800 X122.976 Y103.460 E25.99398
G0 F9000 X123.057 Y102.975
G1 F1800 X124.034 Y103.952 E26.15978
G0 F9000 X124.166 Y103.519
G1 F1800 X123.175 Y102.527 E26.32805
G0 F9000 X123.788 Y102.575
G1 F1800 X124.299 Y103.086 E26.41477
G10
G0 F9000 X122.127 Y136.076
;TYPE:WALL-INNER
G11
G1 F1800 X122.362 Y139.339 E26.80734
G1 X120.730 Y139.325 E27.00319
G1 X120.289 Y136.141 E27.38892
G1 X122.127 Y136.076 E27.60961
G0 F9000 X122.498 Y135.663
;TYPE:WALL-OUTER
G1 F1800 X122.792 Y139.743 E28.10048
G1 X120.381 Y139.723 E28.38981
G1 X119.832 Y135.757 E28.87027
G1 X122.498 Y135.663 E29.19039
G0 F9000 X121.802 Y136.227
;TYPE:SKIN
G1 F1800 X122.014 Y136.439 E29.22637
G0 F9000 X122.057 Y137.048
G1 F1800 X121.256 Y136.246 E29.36239
G0 F9000 X120.709 Y136.265
G1 F1800 X122.101 Y137.658 E29.59870
G0 F9000 X122.145 Y138.267
G1 F1800 X120.495 Y136.617 E29.87872
G0 F9000 X120.586 Y137.274
G1 F1800 X122.189 Y138.877 E30.15075
G0 F9000 X121.940 Y139.193
G1 F1800 X120.676 Y137.930 E30.36518
G0 F9000 X120.768 Y138.587
G1 F1800 X121.370 Y139.189 E30.46734
G10
G0 F9000 X109.712 Y136.140
;TYPE:WALL-INNER
G11
G1 F1800 X109.271 Y139.325 E30.85319
G1 X107.637 Y139.340 E31.04928
G1 X107.873 Y136.076 E31.44198
G1 X109.712 Y136.140 E31.66279
G0 F9000 X110.169 Y135.756
;TYPE:WALL-OUTER
G1 F1800 X109.620 Y139.722 E32.14325
G1 X107.207 Y139.744 E32.43282
G1 X107.502 Y135.663 E32.92382
G1 X110.169 Y135.756 E33.24405
G0 F9000 X109.535 Y136.405
;TYPE:SKIN
G1 F1800 X109.397 Y136.267 E33.26747
G0 F9000 X108.812 Y136.248
G1 F1800 X109.465 Y136.901 E33.37829
G0 F9000 X109.397 Y137.398
G1 F1800 X108.226 Y136.227 E33.57702
G0 F9000 X107.978 Y136.545
G1 F1800 X109.328 Y137.895 E33.80612
G0 F9000 X109.259 Y138.392
G1 F1800 X107.939 Y137.072 E34.03013
G0 F9000 X107.902 Y137.600
G1 F1800 X109.190 Y138.889 E34.24880
G0 F9000 X108.924 Y139.188
G1 F1800 X107.864 Y138.128 E34.42868
G0 F9000 X107.826 Y138.655
G1 F1800 X108.363 Y139.193 E34.51990
;LAYER:1
M106 S255
G10
G0 F9000 X105.836 Y103.467 Z0.500
;TYPE:FILL
G11
G1 F2820 X106.581 Y102.722 E34.60419
G0 F9000 X106.923 Y102.555
;TYPE:WALL-INNER
G1 F2520 X107.067 Y102.527 E34.61592
G1 X107.563 Y105.454 E34.85342
G1 X106.370 Y105.484 E34.94889
G1 X106.339 Y105.288 E34.96477
G1 X106.159 Y104.997 E34.99214
G1 X105.446 Y102.670 E35.18684
G1 X106.923 Y102.555 E35.30536
G0 F9000 X106.868 Y102.158
;TYPE:WALL-OUTER
G1 F1920 X107.393 Y102.054 E35.34818
G1 X107.964 Y105.424 E35.62162
G1 X108.008 Y105.843 E35.65532
G1 X106.029 Y105.893 E35.81369
G1 X105.956 Y105.430 E35.85119
G1 X105.791 Y105.163 E35.87630
G1 X104.917 Y102.310 E36.11501
G1 X106.868 Y102.158 E36.27156
G0 F9000 X106.887 Y102.698
;TYPE:SKIN
G1 F1740 X105.902 Y103.683 E36.38300
G0 F9000 X105.770 Y103.250
G1 F1740 X106.274 Y102.746 E36.44003
G0 F9000 X107.024 Y103.127
G1 F1740 X106.035 Y104.116 E36.55192
G0 F9000 X106.168 Y104.549
G1 F1740 X107.106 Y103.610 E36.65810
G0 F9000 X107.188 Y104.094
G1 F1740 X106.309 Y104.974 E36.75760
G0 F9000 X106.507 Y105.341
G1 F1740 X107.270 Y104.578 E36.84392
G0 F9000 X107.352 Y105.061
G1 F1740 X107.088 Y105.326 E36.87385
G10
G0 F9000 X122.440 Y105.443
;TYPE:WALL-INNER
G11
G1 F2520 X122.937 Y102.527 E37.11049
G1 X123.076 Y102.554 E37.12182
G1 X124.554 Y102.670 E37.24043
G1 X123.843 Y104.995 E37.43493
G1 X123.661 Y105.288 E37.46252
G1 X123.631 Y105.480 E37.47807
G1 X122.440 Y105.443 E37.57339
G0 F9000 X122.262 Y105.838
;TYPE:WALL-OUTER
G1 F1920 X121.993 Y105.837 E37.59491
G1 X122.037 Y105.425 E37.62806
G1 X122.611 Y102.055 E37.90154
G1 X123.131 Y102.157 E37.94394
G1 X125.083 Y102.310 E38.10058
G1 X124.211 Y105.160 E38.33901
G1 X124.044 Y105.430 E38.36441
G1 X123.971 Y105.891 E38.40175
G1 X122.262 Y105.838 E38.53853
G0 F9000 X122.935 Y105.318
;TYPE:SKIN
G1 F1740 X123.887 Y104.366 E38.64624
G0 F9000 X124.136 Y103.551
G1 F1740 X122.649 Y105.038 E38.81447
G0 F9000 X122.766 Y104.356
G1 F1740 X124.330 Y102.792 E38.99142
G0 F9000 X123.805 Y102.751
G1 F1740 X122.883 Y103.673 E39.09573
G0 F9000 X122.999 Y102.992
G1 F1740 X123.281 Y102.710 E39.12764
G10
G0 F9000 X122.119 Y136.330
;TYPE:WALL-INNER
G11
G1 F2520 X122.342 Y139.434 E39.37660
G1 X120.766 Y139.421 E39.50268
G1 X120.332 Y136.394 E39.74732
G1 X122.119 Y136.330 E39.89037
G0 F9000 X122.490 Y135.916
;TYPE:WALL-OUTER
G1 F1920 X122.766 Y139.751 E40.19796
G1 X122.768 Y139.838 E40.20493
G1 X120.448 Y139.818 E40.39053
G1 X120.419 Y139.818 E40.39285
G1 X119.873 Y136.010 E40.70061
G1 X122.490 Y135.916 E40.91010
G0 F9000 X121.753 Y136.482
;TYPE:SKIN
G1 F1740 X120.645 Y137.589 E41.03540
G0 F9000 X120.575 Y137.094
G1 F1740 X121.166 Y136.503 E41.10227
G0 F9000 X120.580 Y136.523
G1 F1740 X120.503 Y136.600 E41.11098
G0 F9000 X120.716 Y138.084
G1 F1740 X122.011 Y136.789 E41.25749
G0 F9000 X122.050 Y137.316
G1 F1740 X120.787 Y138.579 E41.40038
G0 F9000 X120.858 Y139.073
G1 F1740 X122.087 Y137.844 E41.53943
G0 F9000 X122.125 Y138.373
G1 F1740 X121.213 Y139.284 E41.64255
G0 F9000 X121.775 Y139.288
G1 F1740 X122.163 Y138.900 E41.68645
G10
G0 F9000 X109.673 Y136.392
;TYPE:WALL-INNER
G11
G1 F2520 X109.255 Y139.420 E41.93099
G1 X107.657 Y139.435 E42.05883
G1 X107.881 Y136.329 E42.30796
G1 X109.673 Y136.392 E42.45141
G0 F9000 X110.031 Y136.004
;TYPE:WALL-OUTER
G1 F1920 X110.130 Y136.008 E42.45933
G1 X109.625 Y139.662 E42.75443
G1 X109.592 Y139.817 E42.76711
G1 X107.232 Y139.839 E42.95592
G1 X107.233 Y139.751 E42.96296
G1 X107.510 Y135.916 E43.27056
G1 X110.031 Y136.004 E43.47236
G0 F9000 X109.273 Y136.516
;TYPE:SKIN
G1 F1740 X107.908 Y137.881 E43.62679
G0 F9000 X107.952 Y137.272
G1 F1740 X108.726 Y136.497 E43.71442
G0 F9000 X108.179 Y136.479
G1 F1740 X107.996 Y136.662 E43.73512
G0 F9000 X109.462 Y136.893
G1 F1740 X107.864 Y138.491 E43.91591
G0 F9000 X107.821 Y139.100
G1 F1740 X109.371 Y137.549 E44.09133
G0 F9000 X109.281 Y138.206
G1 F1740 X108.197 Y139.289 E44.21392
G0 F9000 X108.768 Y139.284
G1 F1740 X109.190 Y138.863 E44.26160
;LAYER:2
G10
G0 F9000 X105.851 Y103.451 Z0.700
;TYPE:FILL
G11
G1 F3900 X106.394 Y102.909 E44.32298
G0 F9000 X106.640 Y102.751
;TYPE:WALL-INNER
G1 F3300 X107.142 Y102.652 E44.36391
G1 X107.582 Y105.267 E44.57606
G1 X107.610 Y105.535 E44.59761
G1 X106.413 Y105.572 E44.69342
G1 X106.336 Y105.081 E44.73318
G1 X106.076 Y104.661 E44.77269
G1 X105.518 Y102.838 E44.92521
G1 X106.640 Y102.751 E45.01524
G0 F9000 X106.585 Y102.354
;TYPE:WALL-OUTER
G1 F2100 X107.468 Y102.179 E45.08726
G1 X107.978 Y105.206 E45.33283
G1 X108.055 Y105.935 E45.39147
G1 X107.542 Y105.935 E45.43251
G1 X106.073 Y105.983 E45.55010
G1 X105.953 Y105.223 E45.61165
G1 X105.708 Y104.827 E45.64890
G1 X104.989 Y102.478 E45.84543
G1 X106.585 Y102.354 E45.97349
G0 F9000 X106.573 Y102.896
;TYPE:SKIN
G1 F1800 X107.135 Y103.458 E46.03708
G0 F9000 X107.249 Y104.138
G1 F1800 X106.048 Y102.937 E46.17295
G0 F9000 X105.786 Y103.241
G1 F1800 X107.363 Y104.817 E46.35132
G0 F9000 X107.381 Y105.402
G1 F1800 X106.036 Y104.056 E46.50354
G0 F9000 X106.472 Y105.058
G1 F1800 X106.833 Y105.419 E46.54438
G10
G0 F9000 X122.466 Y105.536
;TYPE:WALL-INNER
G11
G1 F3300 X122.390 Y105.536 E46.55046
G1 X122.864 Y102.652 E46.78428
G1 X123.359 Y102.750 E46.82465
G1 X124.483 Y102.838 E46.91484
G1 X123.926 Y104.659 E47.06719
G1 X123.664 Y105.081 E47.10692
G1 X123.588 Y105.571 E47.14659
G1 X122.466 Y105.536 E47.23640
G0 F9000 X122.459 Y105.936
;TYPE:WALL-OUTER
G1 F2100 X121.945 Y105.935 E47.27752
G1 X122.023 Y105.207 E47.33609
G1 X122.533 Y102.215 E47.57890
G1 X122.538 Y102.180 E47.58173
G1 X123.414 Y102.353 E47.65316
G1 X125.011 Y102.478 E47.78131
G1 X124.294 Y104.825 E47.97764
G1 X124.047 Y105.223 E48.01511
G1 X123.928 Y105.982 E48.07658
G1 X122.459 Y105.936 E48.19415
G0 F9000 X122.655 Y105.402
;TYPE:SKIN
G1 F1800 X122.567 Y105.313 E48.20417
G0 F9000 X122.646 Y104.827
G1 F1800 X123.239 Y105.420 E48.27126
G0 F9000 X123.514 Y105.129
G1 F1800 X122.726 Y104.342 E48.36035
G0 F9000 X122.806 Y103.855
G1 F1800 X123.703 Y104.752 E48.46184
G0 F9000 X123.872 Y104.356
G1 F1800 X122.885 Y103.369 E48.57350
G0 F9000 X122.965 Y102.884
G1 F1800 X124.004 Y103.922 E48.69099
G0 F9000 X124.136 Y103.489
G1 F1800 X123.552 Y102.905 E48.75707
G0 F9000 X124.167 Y102.954
G1 F1800 X124.269 Y103.056 E48.76861
G10
G0 F9000 X122.112 Y136.583
;TYPE:WALL-INNER
G11
G1 F3300 X122.324 Y139.530 E49.00498
G1 X120.764 Y139.517 E49.12978
G1 X120.367 Y136.647 E49.36157
G1 X122.112 Y136.583 E49.50126
G0 F9000 X122.483 Y136.169
;TYPE:WALL-OUTER
G1 F2100 X122.737 Y139.698 E49.78431
G1 X122.741 Y139.933 E49.80311
G1 X120.579 Y139.915 E49.97608
G1 X120.437 Y139.915 E49.98744
G1 X119.910 Y136.263 E50.28263
G1 X122.483 Y136.169 E50.48860
G0 F9000 X121.746 Y136.736
;TYPE:SKIN
G1 F1800 X122.002 Y136.992 E50.51757
G0 F9000 X122.045 Y137.602
G1 F1800 X121.200 Y136.756 E50.61322
G0 F9000 X120.654 Y136.776
G1 F1800 X122.089 Y138.211 E50.77558
G0 F9000 X122.132 Y138.820
G1 F1800 X120.594 Y137.282 E50.94958
G0 F9000 X120.686 Y137.939
G1 F1800 X122.134 Y139.387 E51.11340
G0 F9000 X121.563 Y139.382
G1 F1800 X120.777 Y138.596 E51.20233
G0 F9000 X120.868 Y139.253
G1 F1800 X120.993 Y139.377 E51.21641
G10
G0 F9000 X109.634 Y136.643
;TYPE:WALL-INNER
G11
G1 F3300 X109.237 Y139.516 E51.44844
G1 X107.675 Y139.530 E51.57340
G1 X107.888 Y136.582 E51.80986
G1 X109.634 Y136.643 E51.94962
G0 F9000 X109.834 Y136.250
;TYPE:WALL-OUTER
G1 F2100 X110.091 Y136.261 E51.97020
G1 X109.629 Y139.603 E52.24010
G1 X109.563 Y139.915 E52.26562
G1 X109.423 Y139.914 E52.27682
G1 X107.259 Y139.934 E52.44994
G1 X107.262 Y139.698 E52.46883
G1 X107.517 Y136.169 E52.75188
G1 X109.834 Y136.250 E52.93736
G0 F9000 X109.336 Y136.772
;TYPE:SKIN
G1 F1800 X109.458 Y136.894 E52.95116
G0 F9000 X109.390 Y137.391
G1 F1800 X108.750 Y136.752 E53.02351
G0 F9000 X108.165 Y136.732
G1 F1800 X109.321 Y137.888 E53.15430
G0 F9000 X109.252 Y138.385
G1 F1800 X107.987 Y137.120 E53.29741
G0 F9000 X107.949 Y137.648
G1 F1800 X109.183 Y138.882 E53.43703
G0 F9000 X109.113 Y139.377
G1 F1800 X107.911 Y138.175 E53.57302
G0 F9000 X107.873 Y138.703
G1 F1800 X108.552 Y139.382 E53.64984
G0 F9000 X107.991 Y139.387
G1 F1800 X107.835 Y139.231 E53.66749
;LAYER:3
G10
G0 F9000 X105.867 Y103.436 Z0.900
;TYPE:FILL
G11
G1 F4320 X106.206 Y103.096 E53.70590
G0 F9000 X106.358 Y102.946
;TYPE:WALL-INNER
G1 F3540 X107.208 Y102.778 E53.77521
G1 X107.595 Y105.038 E53.95864
G1 X107.658 Y105.634 E54.00659
G1 X106.456 Y105.663 E54.10278
G1 X106.332 Y104.873 E54.16675
G1 X105.994 Y104.327 E54.21812
G1 X105.589 Y103.006 E54.32866
G1 X106.358 Y102.946 E54.39036
G0 F9000 X106.303 Y102.549
;TYPE:WALL-OUTER
G1 F1920 X107.537 Y102.305 E54.49100
G1 X107.992 Y104.988 E54.70870
G1 X108.103 Y106.034 E54.79285
G1 X107.345 Y106.034 E54.85349
G1 X106.116 Y106.074 E54.95186
G1 X105.949 Y105.015 E55.03763
G1 X105.626 Y104.492 E55.08681
G1 X105.060 Y102.646 E55.24127
G1 X106.303 Y102.549 E55.34101
G0 F9000 X106.495 Y103.531
G10
G0 X122.407 Y105.032
;TYPE:WALL-INNER
G11
G1 F3540 X122.791 Y102.778 E55.52393
G1 X123.641 Y102.945 E55.59323
G1 X124.411 Y103.005 E55.65502
G1 X124.007 Y104.325 E55.76545
G1 X123.668 Y104.873 E55.81700
G1 X123.545 Y105.662 E55.88089
G1 X122.663 Y105.635 E55.95148
G1 X122.343 Y105.635 E55.97708
G1 X122.407 Y105.032 E56.02559
G0 F9000 X122.009 Y104.989
;TYPE:WALL-OUTER
G1 F1920 X122.447 Y102.420 E56.23408
G1 X122.463 Y102.305 E56.24336
G1 X123.696 Y102.548 E56.34390
G1 X124.940 Y102.646 E56.44373
G1 X124.375 Y104.491 E56.59810
G1 X124.051 Y105.015 E56.64738
G1 X123.885 Y106.073 E56.73306
G1 X122.656 Y106.035 E56.83142
G1 X121.898 Y106.034 E56.89206
G1 X122.009 Y104.989 E56.97613
G0 F9000 X123.004 Y105.045
G10
G0 X120.645 Y137.615
;TYPE:FILL
G11
G1 F4320 X122.127 Y139.097 E57.14380
G0 F9000 X120.761 Y139.476
;TYPE:WALL-INNER
G1 F3540 X120.405 Y136.894 E57.35232
G1 X122.104 Y136.835 E57.48832
G1 X122.305 Y139.625 E57.71210
G1 X120.790 Y139.612 E57.83330
G1 X120.761 Y139.476 E57.84443
G0 F9000 X120.707 Y140.011
;TYPE:WALL-OUTER
G1 F1920 X120.466 Y140.012 E57.86371
G1 X120.367 Y139.543 E57.90205
G1 X119.949 Y136.514 E58.14667
G1 X122.475 Y136.422 E58.34889
G1 X122.707 Y139.646 E58.60747
G1 X122.714 Y140.028 E58.63804
G1 X120.707 Y140.011 E58.79860
G0 F9000 X120.718 Y139.712
G0 X121.111 Y137.689
;TYPE:SKIN
G1 F1500 X121.816 Y136.984 E58.87836
G0 F9000 X122.002 Y137.364
G1 F1500 X121.698 Y137.668 E58.91276
G0 F9000 X121.231 Y137.004
G1 F1500 X120.643 Y137.592 E58.97928
G0 F9000 X120.574 Y137.095
G1 F1500 X120.645 Y137.024 E58.98732
G10
G0 F9000 X109.352 Y137.636
;TYPE:FILL
G11
G1 F4320 X108.719 Y137.003 E59.05893
G0 F9000 X109.240 Y139.472
;TYPE:WALL-INNER
G1 F3540 X109.211 Y139.611 E59.07029
G1 X107.694 Y139.625 E59.19166
G1 X107.896 Y136.835 E59.41544
G1 X109.596 Y136.895 E59.55152
G1 X109.240 Y139.472 E59.75964
G0 F9000 X109.294 Y140.010
;TYPE:WALL-OUTER
G1 F1920 X107.287 Y140.029 E59.92021
G1 X107.292 Y139.647 E59.95077
G1 X107.525 Y136.422 E60.20944
G1 X109.636 Y136.496 E60.37843
G1 X110.052 Y136.514 E60.41174
G1 X109.634 Y139.541 E60.65620
G1 X109.534 Y140.012 E60.69472
G1 X109.294 Y140.010 E60.71392
G0 F9000 X109.305 Y139.711
G0 X109.220 Y137.701
;TYPE:SKIN
G1 F1500 X109.363 Y137.558 E60.73010
G0 F9000 X109.332 Y137.023
G1 F1500 X108.674 Y137.681 E60.80454
G0 F9000 X108.128 Y137.661
